files/usr/lib/cinnamon-settings/data/icons/backgrounds.svg

<?xml version="1.0" encoding="UTF-8" standalone="no"?>
<!-- Created with Inkscape (http://www.inkscape.org/) -->
<svg
   xmlns:dc="http://purl.org/dc/elements/1.1/"
   xmlns:cc="http://creativecommons.org/ns#"
   xmlns:rdf="http://www.w3.org/1999/02/22-rdf-syntax-ns#"
   xmlns:svg="http://www.w3.org/2000/svg"
   xmlns="http://www.w3.org/2000/svg"
   xmlns:xlink="http://www.w3.org/1999/xlink"
   xmlns:sodipodi="http://sodipodi.sourceforge.net/DTD/sodipodi-0.dtd"
   xmlns:inkscape="http://www.inkscape.org/namespaces/inkscape"
   version="1.0"
   width="128"
   height="128"
   id="svg4569"
   sodipodi:version="0.32"
   inkscape:version="0.46"
   sodipodi:docname="monitor.svg"
   inkscape:output_extension="org.inkscape.output.svg.inkscape">
  <metadata
     id="metadata46">
    <rdf:RDF>
      <cc:Work
         rdf:about="">
        <dc:format>image/svg+xml</dc:format>
        <dc:type
           rdf:resource="http://purl.org/dc/dcmitype/StillImage" />
      </cc:Work>
    </rdf:RDF>
  </metadata>
  <sodipodi:namedview
     inkscape:window-height="789"
     inkscape:window-width="1440"
     inkscape:pageshadow="2"
     inkscape:pageopacity="0.0"
     guidetolerance="10.0"
     gridtolerance="10.0"
     objecttolerance="10.0"
     borderopacity="1.0"
     bordercolor="#666666"
     pagecolor="#ffffff"
     id="base"
     showgrid="false"
     showguides="true"
     inkscape:guide-bbox="true"
     inkscape:zoom="13.047223"
     inkscape:cx="65.229"
     inkscape:cy="30.457831"
     inkscape:window-x="0"
     inkscape:window-y="24"
     inkscape:current-layer="svg4569">
    <inkscape:grid
       type="xygrid"
       id="grid2421" />
    <sodipodi:guide
       orientation="0,1"
       position="81.703208,19.161165"
       id="guide2423" />
    <sodipodi:guide
       orientation="0,1"
       position="83.695969,17.398338"
       id="guide2425" />
  </sodipodi:namedview>
  <defs
     id="defs4571">
    <linearGradient
       id="linearGradient3236">
      <stop
         id="stop3240"
         style="stop-color:#bebebe;stop-opacity:1"
         offset="0" />
      <stop
         id="stop3244"
         style="stop-color:#e6e6e6;stop-opacity:1"
         offset="1" />
    </linearGradient>
    <linearGradient
       id="linearGradient3924">
      <stop
         id="stop3926"
         style="stop-color:#464646;stop-opacity:1"
         offset="0" />
      <stop
         id="stop3928"
         style="stop-color:#787878;stop-opacity:1"
         offset="0.10079991" />
      <stop
         id="stop3930"
         style="stop-color:#828282;stop-opacity:1"
         offset="0.56052971" />
      <stop
         id="stop3932"
         style="stop-color:#828282;stop-opacity:1"
         offset="0.64530003" />
      <stop
         id="stop3934"
         style="stop-color:#646464;stop-opacity:1"
         offset="1" />
    </linearGradient>
    <linearGradient
       id="linearGradient3912">
      <stop
         id="stop3914"
         style="stop-color:#787878;stop-opacity:1"
         offset="0" />
      <stop
         id="stop3916"
         style="stop-color:#b4b4b4;stop-opacity:1"
         offset="0.35046947" />
      <stop
         id="stop3918"
         style="stop-color:#c8c8c8;stop-opacity:1"
         offset="0.49417919" />
      <stop
         id="stop3920"
         style="stop-color:#e6e6e6;stop-opacity:1"
         offset="0.58907253" />
      <stop
         id="stop3922"
         style="stop-color:#8c8c8c;stop-opacity:1"
         offset="1" />
    </linearGradient>
    <linearGradient
       id="linearGradient6592-2-7">
      <stop
         id="stop6594-0-2"
         style="stop-color:#ffffff;stop-opacity:0.27450982"
         offset="0" />
      <stop
         id="stop6596-2-5"
         style="stop-color:#ffffff;stop-opacity:0"
         offset="1" />
    </linearGradient>
    <linearGradient
       id="linearGradient3342">
      <stop
         id="stop3344"
         style="stop-color:#ffffff;stop-opacity:0"
         offset="0" />
      <stop
         id="stop3346"
         style="stop-color:#ffffff;stop-opacity:1"
         offset="1" />
    </linearGradient>
    <linearGradient
       id="linearGradient10691-1">
      <stop
         id="stop10693-3"
         style="stop-color:#000000;stop-opacity:1"
         offset="0" />
      <stop
         id="stop10695-1"
         style="stop-color:#000000;stop-opacity:0"
         offset="1" />
    </linearGradient>
    <linearGradient
       id="linearGradient6712">
      <stop
         id="stop6714"
         style="stop-color:#3c3c3c;stop-opacity:1"
         offset="0" />
      <stop
         id="stop6716"
         style="stop-color:#1e1e1e;stop-opacity:1"
         offset="1" />
    </linearGradient>
    <linearGradient
       x1="15.573899"
       y1="46.971004"
       x2="23.578077"
       y2="46.971004"
       id="linearGradient3218"
       xlink:href="#linearGradient3342"
       gradientUnits="userSpaceOnUse"
       gradientTransform="matrix(3.1282824,0,0,2.6666665,-9.7588846,-7.7560032)"
       spreadMethod="reflect" />
    <linearGradient
       x1="361.10583"
       y1="87.050117"
       x2="361.10583"
       y2="94.396416"
       id="linearGradient3221"
       xlink:href="#linearGradient3912"
       gradientUnits="userSpaceOnUse"
       gradientTransform="matrix(2.6746618,0,0,2.5459707,-893.97886,-122.09114)" />
    <linearGradient
       x1="61.968769"
       y1="35.053661"
       x2="61.968769"
       y2="43.378311"
       id="linearGradient3223"
       xlink:href="#linearGradient3924"
       gradientUnits="userSpaceOnUse"
       gradientTransform="matrix(2.6843014,0,0,2.5456046,-102.42668,7.7670696)" />
    <radialGradient
       cx="6.702713"
       cy="73.615715"
       r="7.228416"
       fx="6.702713"
       fy="73.615715"
       id="radialGradient3226"
       xlink:href="#linearGradient10691-1"
       gradientUnits="userSpaceOnUse"
       gradientTransform="matrix(5.2570306,0,0,1.1067431,28.763637,34.526312)" />
    <linearGradient
       x1="64"
       y1="98.144615"
       x2="64"
       y2="9.0004082"
       id="linearGradient3234"
       xlink:href="#linearGradient3236"
       gradientUnits="userSpaceOnUse" />
    <linearGradient
       x1="12.9375"
       y1="8.4375"
       x2="15.25"
       y2="19.8125"
       id="linearGradient3254"
       xlink:href="#linearGradient6592-2-7"
       gradientUnits="userSpaceOnUse"
       gradientTransform="matrix(2.9523812,0,0,3.5999974,-6.8571431,-0.7999939)" />
    <radialGradient
       cx="12.244348"
       cy="4.8630676"
       r="20.999998"
       fx="12.244348"
       fy="4.8630676"
       id="radialGradient3257"
       xlink:href="#linearGradient6712"
       gradientUnits="userSpaceOnUse"
       gradientTransform="matrix(3.7780358,5.3547614e-2,-3.5176373e-2,2.9933064,-14.20152,17.604778)" />
  </defs>
  <path
     d="M 102,116 C 102,120.41828 84.986821,124 63.999998,124 C 43.013178,124 26,120.41828 26,116 C 26,111.58172 43.013178,108 63.999998,108 C 84.986821,108 102,111.58172 102,116 L 102,116 z"
     id="path2589"
     style="opacity:0.3;fill:url(#radialGradient3226);fill-opacity:1;fill-rule:nonzero;stroke:none;stroke-width:0.80000001;marker:none;visibility:visible;display:inline;overflow:visible" />
  <path
     d="M 47.5,97.499139 C 47.5,97.499139 47.897503,108.33774 45.99939,110.86405 C 44.101278,113.39038 40.324379,115.00067 40.324379,115.00067 C 37.900756,115.26607 37.880707,118.50087 40.324379,118.50087 L 87.67543,118.50087 C 90.119102,118.50087 90.099561,115.26268 87.67543,115.00067 C 87.67543,115.00067 83.898695,113.39037 82.000611,110.86405 C 80.102525,108.33775 80.5,97.499139 80.5,97.499139 L 47.516944,97.499139 L 47.5,97.499139 z"
     id="rect1789"
     style="fill:url(#linearGradient3221);fill-opacity:1;fill-rule:nonzero;stroke:url(#linearGradient3223);stroke-width:0.99827462000000000;stroke-linecap:round;stroke-linejoin:round;marker:none;stroke-miterlimit:4;stroke-dasharray:none;stroke-dashoffset:0.50000001000000005;stroke-opacity:1;visibility:visible;display:inline;overflow:visible;enable-background:new"
     sodipodi:nodetypes="csccccsccc" />
  <path
     d="M 40.524811,117.5 L 87.475189,117.5"
     id="path3340"
     style="fill:none;stroke:url(#linearGradient3218);stroke-width:1px;stroke-linecap:square;stroke-linejoin:miter;stroke-opacity:1" />
  <rect
     width="124.99976"
     height="87.999352"
     rx="2.7777872"
     ry="2.6666665"
     x="1.5001197"
     y="9.5005283"
     id="rect2722"
     style="fill:#1a1a1a;fill-opacity:1;stroke:url(#linearGradient3234);stroke-width:1.00023937;stroke-linecap:round;stroke-linejoin:round;stroke-miterlimit:4;stroke-dasharray:none;stroke-dashoffset:0.50000001;stroke-opacity:1" />
  <rect
     width="112"
     height="75"
     x="8"
     y="16"
     id="rect2716"
     style="fill:url(#radialGradient3257);fill-opacity:1;fill-rule:evenodd;stroke:none;display:inline;enable-background:new" />
  <path
     d="M 2,10 L 126,10 L 126,38.800015 L 2,64 L 2,10 z"
     id="rect6588"
     style="fill:url(#linearGradient3254);fill-opacity:1;stroke:none" />
  <rect
     width="122.99976"
     height="85.999763"
     rx="2.7333424"
     ry="2.6060724"
     x="2.5001197"
     y="10.500322"
     id="rect3248"
     style="opacity:0.3;fill:none;fill-opacity:1;stroke:#000000;stroke-width:1.00023937;stroke-linecap:round;stroke-linejoin:round;stroke-miterlimit:4;stroke-dasharray:none;stroke-dashoffset:0.50000001;stroke-opacity:1" />
</svg>

<?xml version="1.0" encoding="UTF-8" standalone="no"?>
<svg xmlns="http://www.w3.org/2000/svg" height="128" width="128" version="1.1" xmlns:xlink="http://www.w3.org/1999/xlink">
 <defs>
  <linearGradient id="h" y2="46.971" stop-color="#fff" spreadMethod="reflect" gradientUnits="userSpaceOnUse" x2="23.578" gradientTransform="matrix(3.1283,0,0,2.6667,-9.7589,-7.756)" y1="46.971" x1="15.574">
   <stop stop-opacity="0" offset="0"/>
   <stop offset="1"/>
  </linearGradient>
  <linearGradient id="i" y2="94.396" gradientUnits="userSpaceOnUse" x2="361.11" gradientTransform="matrix(2.6747,0,0,2.546,-893.98,-122.09)" y1="87.05" x1="361.11">
   <stop stop-color="#787878" offset="0"/>
   <stop stop-color="#b4b4b4" offset=".35047"/>
   <stop stop-color="#c8c8c8" offset=".49418"/>
   <stop stop-color="#e6e6e6" offset=".58907"/>
   <stop stop-color="#8c8c8c" offset="1"/>
  </linearGradient>
  <linearGradient id="j" y2="43.378" gradientUnits="userSpaceOnUse" x2="61.969" gradientTransform="matrix(2.6843,0,0,2.5456,-102.43,7.7671)" y1="35.054" x1="61.969">
   <stop stop-color="#464646" offset="0"/>
   <stop stop-color="#787878" offset=".1008"/>
   <stop stop-color="#828282" offset=".56053"/>
   <stop stop-color="#828282" offset=".64530"/>
   <stop stop-color="#646464" offset="1"/>
  </linearGradient>
  <radialGradient id="k" gradientUnits="userSpaceOnUse" cy="73.616" cx="6.7027" gradientTransform="matrix(5.257,0,0,1.1067,28.764,34.526)" r="7.2284">
   <stop offset="0"/>
   <stop stop-opacity="0" offset="1"/>
  </radialGradient>
  <linearGradient id="d" stop-color="#fff" y2="19.812" gradientUnits="userSpaceOnUse" x2="15.25" gradientTransform="matrix(2.9524 0 0 3.6 -6.8571 -.79999)" y1="8.4375" x1="12.938">
   <stop stop-opacity=".27451" offset="0"/>
   <stop stop-opacity="0" offset="1"/>
  </linearGradient>
  <radialGradient id="a" gradientUnits="userSpaceOnUse" cy="4.8631" cx="12.244" gradientTransform="matrix(3.778 .053548 -.035176 2.9933 -14.202 17.605)" r="21">
   <stop stop-color="#3c3c3c" offset="0"/>
   <stop stop-color="#1e1e1e" offset="1"/>
  </radialGradient>
  <linearGradient id="c" y2="9.0004" gradientUnits="userSpaceOnUse" x2="64" y1="98.145" x1="64">
   <stop stop-color="#bebebe" offset="0"/>
   <stop stop-color="#e6e6e6" offset="1"/>
  </linearGradient>
 </defs>
 <path opacity=".3" d="m102 116c0 4.4183-17.013 8-38 8s-38-3.58-38-8 17.013-8 38-8 38 3.58 38 8z" fill="url(#k)"/>
 <path stroke-linejoin="round" d="m47.5 97.499s0.3975 10.839-1.5006 13.365c-1.8981 2.5263-5.675 4.1366-5.675 4.1366-2.4236 0.2654-2.4437 3.5002 0 3.5002h47.351c2.4437 0 2.4241-3.2382 0-3.5002 0 0-3.7767-1.6103-5.6748-4.1366-1.897-2.52-1.5-13.361-1.5-13.361h-33z" stroke-dashoffset=".5" stroke="url(#j)" stroke-linecap="round" fill="url(#i)"/>
 <path d="m40.525 117.5h46.95" stroke="url(#h)" stroke-linecap="square" stroke-width="1px" fill="none"/>
 <rect stroke-linejoin="round" stroke-dashoffset=".5" rx="2.8" ry="2.7" height="88" width="125" stroke="url(#c)" stroke-linecap="round" y="9.5" x="1.5" fill="#1a1a1a"/>
 <rect fill-rule="evenodd" height="75" width="112" y="16" x="8" fill="url(#a)"/>
 <path d="m2 10h124v28.8l-124 25.2v-54z" fill="url(#d)"/>
 <rect opacity=".3" stroke-linejoin="round" stroke-dashoffset=".5" rx="2.7" ry="2.6" height="86" width="123" stroke="#000" stroke-linecap="round" y="10.5" x="2.5" fill="none"/>
</svg>
